src/static/images/favicon-dark.svg

<svg viewBox="0 0 64 64" fill="#ebdbb2" stroke="#3c3836" stroke-width="1.5%" xmlns="http://www.w3.org/2000/svg"><path d="m4.223 37.28.945-3.792c.486-1.952 1.519-3.528 3.099-4.728 1.579-1.2 3.409-1.8 5.489-1.8 1.312 0 2.344.224 3.096.672.752.448 1.329.992 1.729 1.632.4.64.743 1.288 1.028 1.944.284.656.596 1.2.937 1.632.34.432.846.648 1.518.648 1.216 0 1.995-.688 2.339-2.064l.873-3.504h5.088l-.945 3.792c-.487 1.952-1.512 3.528-3.075 4.728-1.564 1.2-3.401 1.8-5.513 1.8-1.312 0-2.344-.224-3.096-.672-.752-.448-1.329-.992-1.729-1.632a14.544 14.544 0 0 1-1.027-1.944c-.285-.656-.598-1.2-.938-1.632-.34-.432-.846-.648-1.518-.648-1.216 0-1.996.688-2.339 2.064l-.873 3.504H4.223Zm34.48 18.96 1.58-6.336c-3.072-.256-5.297-1.248-6.674-2.976-1.378-1.728-1.731-4-1.061-6.816h6c-.295 1.184-.172 2.168.368 2.952.54.784 1.435 1.304 2.683 1.56l2.538-10.176-.805-.24c-2.576-.704-4.381-1.968-5.414-3.792-1.034-1.824-1.227-4.032-.581-6.624.678-2.72 2.083-4.952 4.214-6.696 2.13-1.744 4.684-2.744 7.66-3l1.58-6.336h2.976l-1.568 6.288c2.912.256 5.01 1.24 6.296 2.952 1.285 1.712 1.604 3.928.958 6.648h-6c.59-2.368-.271-3.792-2.583-4.272l-2.417 9.696 1.476.432c2.608.704 4.423 1.96 5.445 3.768 1.021 1.808 1.2 4.04.538 6.696-.694 2.784-2.187 5.08-4.477 6.888-2.291 1.808-5.02 2.84-8.188 3.096l-1.568 6.288h-2.976Zm4.718-32.784c-.28 1.12-.227 2.096.158 2.928.384.832 1.089 1.44 2.113 1.824l2.202-8.832c-2.416.448-3.907 1.808-4.473 4.08Zm1.142 21.216c1.36-.192 2.505-.68 3.437-1.464.932-.784 1.549-1.784 1.852-3 .295-1.184.182-2.208-.338-3.072-.521-.864-1.401-1.44-2.641-1.728l-2.31 9.264Z"/></svg>

<?xml version="1.0" encoding="UTF-8"?>
<svg viewBox="0 0 64 64" width="64" height="64" fill="#ebdbb2" xmlns="http://www.w3.org/2000/svg">
  <path d="M 4.223 37.28 L 5.168 33.488 C 5.654 31.536 6.687 29.96 8.267 28.76 C 9.846 27.56 11.676 26.96 13.756 26.96 C 15.068 26.96 16.1 27.184 16.852 27.632 C 17.604 28.08 18.181 28.624 18.581 29.264 C 18.981 29.904 19.324 30.552 19.609 31.208 C 19.893 31.864 20.205 32.408 20.546 32.84 C 20.886 33.272 21.392 33.488 22.064 33.488 C 23.28 33.488 24.059 32.8 24.403 31.424 L 25.276 27.92 L 30.364 27.92 L 29.419 31.712 C 28.932 33.664 27.907 35.24 26.344 36.44 C 24.78 37.64 22.943 38.24 20.831 38.24 C 19.519 38.24 18.487 38.016 17.735 37.568 C 16.983 37.12 16.406 36.576 16.006 35.936 C 15.605 35.296 15.263 34.648 14.979 33.992 C 14.694 33.336 14.381 32.792 14.041 32.36 C 13.701 31.928 13.195 31.712 12.523 31.712 C 11.307 31.712 10.527 32.4 10.184 33.776 L 9.311 37.28 L 4.223 37.28 Z"/>
  <path d="M 38.703 56.24 L 40.283 49.904 C 37.211 49.648 34.986 48.656 33.609 46.928 C 32.231 45.2 31.878 42.928 32.548 40.112 L 38.548 40.112 C 38.253 41.296 38.376 42.28 38.916 43.064 C 39.456 43.848 40.351 44.368 41.599 44.624 L 44.137 34.448 L 43.332 34.208 C 40.756 33.504 38.951 32.24 37.918 30.416 C 36.884 28.592 36.691 26.384 37.337 23.792 C 38.015 21.072 39.42 18.84 41.551 17.096 C 43.681 15.352 46.235 14.352 49.211 14.096 L 50.791 7.76 L 53.767 7.76 L 52.199 14.048 C 55.111 14.304 57.209 15.288 58.495 17 C 59.78 18.712 60.099 20.928 59.453 23.648 L 53.453 23.648 C 54.043 21.28 53.182 19.856 50.87 19.376 L 48.453 29.072 L 49.929 29.504 C 52.537 30.208 54.352 31.464 55.374 33.272 C 56.395 35.08 56.574 37.312 55.912 39.968 C 55.218 42.752 53.725 45.048 51.435 46.856 C 49.144 48.664 46.415 49.696 43.247 49.952 L 41.679 56.24 L 38.703 56.24 Z M 43.421 23.456 C 43.141 24.576 43.194 25.552 43.579 26.384 C 43.963 27.216 44.668 27.824 45.692 28.208 L 47.894 19.376 C 45.478 19.824 43.987 21.184 43.421 23.456 Z M 44.563 44.672 C 45.923 44.48 47.068 43.992 48 43.208 C 48.932 42.424 49.549 41.424 49.852 40.208 C 50.147 39.024 50.034 38 49.514 37.136 C 48.993 36.272 48.113 35.696 46.873 35.408 L 44.563 44.672 Z"/>
</svg>
